docs/website/static/assets/helpers/icon.svg

<svg width="38" height="38"  viewBox="0 0 38 38" fill="none" xmlns="http://www.w3.org/2000/svg">
<g clip-path="url(#clip0_60_1115)">
<path fill-rule="evenodd" clip-rule="evenodd" d="M23.7024 17.967C23.7939 18.133 23.9176 18.2791 24.0663 18.3968C24.215 18.5145 24.3856 18.6013 24.5683 18.6522C24.7509 18.7031 24.9419 18.7171 25.13 18.6933C25.3181 18.6695 25.4995 18.6085 25.6638 18.5137C25.828 18.4189 25.9717 18.2924 26.0864 18.1414C26.2011 17.9905 26.2846 17.8182 26.3319 17.6346C26.3792 17.4509 26.3894 17.2598 26.362 17.0721C26.3345 16.8845 26.2699 16.7043 26.1719 16.542L20.3532 6.46338C20.2191 6.22856 20.0201 6.03746 19.7801 5.91303C19.5401 5.7886 19.2692 5.73615 19 5.76197C18.7311 5.73883 18.4611 5.79245 18.2214 5.9166C17.9818 6.04076 17.7822 6.23036 17.646 6.46338L6.95821 24.973C6.86465 25.1352 6.80395 25.3143 6.77958 25.5C6.75521 25.6856 6.76765 25.8743 6.81619 26.0551C6.86473 26.236 6.94842 26.4055 7.06248 26.554C7.17654 26.7026 7.31873 26.8272 7.48094 26.9207C7.64315 27.0143 7.8222 27.075 8.00787 27.0994C8.19354 27.1237 8.38219 27.1113 8.56306 27.0627C8.74392 27.0142 8.91345 26.9305 9.06197 26.8165C9.21048 26.7024 9.33508 26.5602 9.42865 26.398L19 9.82055L23.7024 17.967Z" fill="#0082CA"/>
<path fill-rule="evenodd" clip-rule="evenodd" d="M31.0418 24.8666L28.8082 21.0058C28.6574 20.7407 28.4242 20.5321 28.144 20.4117C27.9168 20.2661 27.653 20.188 27.3832 20.1865H15.7457C15.3678 20.1865 15.0053 20.3366 14.7381 20.6038C14.4709 20.8711 14.3207 21.2335 14.3207 21.6114C14.3207 21.9894 14.4709 22.3518 14.7381 22.6191C15.0053 22.8863 15.3678 23.0364 15.7457 23.0364H26.6969L28.5732 26.2898C28.7696 26.6016 29.0791 26.8252 29.4367 26.9137C29.7944 27.0023 30.1725 26.949 30.4917 26.765C30.8109 26.5809 31.0465 26.2805 31.149 25.9266C31.2516 25.5727 31.2132 25.1928 31.0418 24.8666Z" fill="#0082CA"/>
<path fill-rule="evenodd" clip-rule="evenodd" d="M38 19C38 8.50287 29.4971 0 19 0C8.50287 0 0 8.50287 0 19C0 29.4971 8.50198 38 19 38C21.814 38.0041 24.5932 37.3785 27.134 36.1689C26.9108 36.0531 26.7227 35.8797 26.5891 35.6667C26.4555 35.4538 26.3812 35.2089 26.3741 34.9576C24.0664 36.0219 21.5554 36.5728 19.0142 36.5724C9.31246 36.5724 1.43917 28.7 1.43917 18.9973C1.43917 9.29472 9.29827 1.42498 19 1.42498C28.7017 1.42498 36.575 9.30093 36.575 19C36.5827 22.5945 35.4792 26.1035 33.4156 29.0467C33.5856 29.179 33.7232 29.3483 33.8179 29.5417C33.9127 29.7352 33.9622 29.9477 33.9627 30.1631V30.7093C36.5838 27.3696 38.0058 23.2455 38 19Z" fill="#0082CA"/>
<path fill-rule="evenodd" clip-rule="evenodd" d="M32.3001 29.6878H28.0269C27.8377 29.6878 27.6563 29.7629 27.5225 29.8967C27.3887 30.0305 27.3135 30.2119 27.3135 30.4011C27.3135 30.5903 27.3887 30.7718 27.5225 30.9056C27.6563 31.0394 27.8377 31.1145 28.0269 31.1145H31.5889V32.3019C31.5889 32.4908 31.664 32.672 31.7976 32.8057C31.9312 32.9393 32.1124 33.0143 32.3014 33.0143C32.4904 33.0143 32.6716 32.9393 32.8052 32.8057C32.9388 32.672 33.0139 32.4908 33.0139 32.3019V30.4051C33.0142 30.3111 32.996 30.218 32.9603 30.131C32.9246 30.0441 32.8721 29.965 32.8058 29.8984C32.7395 29.8317 32.6607 29.7788 32.5739 29.7427C32.4871 29.7066 32.3941 29.6879 32.3001 29.6878Z" fill="#0082CA"/>
<path fill-rule="evenodd" clip-rule="evenodd" d="M32.0624 33.9627H28.7363V32.5377C28.7363 32.3488 28.6613 32.1676 28.5276 32.0339C28.394 31.9003 28.2128 31.8253 28.0238 31.8253C27.8349 31.8253 27.6536 31.9003 27.52 32.0339C27.3864 32.1676 27.3113 32.3488 27.3113 32.5377V34.6757C27.3127 34.8634 27.3879 35.043 27.5207 35.1757C27.6534 35.3085 27.833 35.3836 28.0207 35.385H32.058C32.247 35.385 32.4282 35.31 32.5618 35.1764C32.6954 35.0427 32.7705 34.8615 32.7705 34.6725C32.7705 34.4836 32.6954 34.3024 32.5618 34.1687C32.4282 34.0351 32.247 33.9601 32.058 33.9601L32.0624 33.9627Z" fill="#0082CA"/>
</g>
<defs>
<clipPath id="clip0_60_1115">
<rect width="38" height="38" fill="white"/>
</clipPath>
</defs>
</svg>

<svg fill="none" xmlns="http://www.w3.org/2000/svg" viewBox="0 0 38 38">
  <g clip-path="url(#a)" fill-rule="evenodd" clip-rule="evenodd" fill="#0082CA">
    <path d="M23.7024 17.967a1.4253 1.4253 0 0 0 1.4276.7264 1.4273 1.4273 0 0 0 1.2019-1.0588 1.4265 1.4265 0 0 0-.16-1.0926L20.3532 6.4634A1.4044 1.4044 0 0 0 19 5.762a1.427 1.427 0 0 0-1.354.7014L6.9582 24.9731a1.4257 1.4257 0 0 0 .5227 1.9477 1.424 1.424 0 0 0 .527.1786 1.4243 1.4243 0 0 0 1.054-.2829 1.4253 1.4253 0 0 0 .3667-.4184L19 9.8206l4.7024 8.1464Z"/>
    <path d="m31.0418 24.8667-2.2336-3.8608a1.399 1.399 0 0 0-.6642-.5941 1.4256 1.4256 0 0 0-.7608-.2253H15.7457a1.4251 1.4251 0 0 0 0 2.85h10.9512l1.8763 3.2534a1.426 1.426 0 0 0 2.5758-.3632 1.4255 1.4255 0 0 0-.1072-1.06Z"/>
    <path d="M38 19C38 8.5029 29.4971 0 19 0S0 8.5029 0 19s8.502 19 19 19a18.859 18.859 0 0 0 8.134-1.8311 1.4094 1.4094 0 0 1-.7599-1.2113 17.567 17.567 0 0 1-7.3599 1.6148c-9.7017 0-17.575-7.8724-17.575-17.5751C1.4392 9.2947 9.2982 1.425 19 1.425c9.7017 0 17.575 7.876 17.575 17.575a17.4351 17.4351 0 0 1-3.1594 10.0467 1.4199 1.4199 0 0 1 .5471 1.1164v.5462A18.924 18.924 0 0 0 38 19Z"/>
    <path d="M32.3001 29.6877h-4.2732a.7133.7133 0 0 0 0 1.4268h3.562v1.1873a.7125.7125 0 0 0 1.425 0v-1.8967a.7159.7159 0 0 0-.2081-.5068.7143.7143 0 0 0-.5057-.2106ZM32.0624 33.9627h-3.3261v-1.425a.7125.7125 0 1 0-1.425 0v2.1379a.7147.7147 0 0 0 .7094.7094h4.0373a.7125.7125 0 0 0 0-1.425l.0044.0027Z"/>
  </g>
  <defs>
    <clipPath id="a">
      <path fill="#fff" d="M0 0h38v38H0z"/>
    </clipPath>
  </defs>
</svg>
